packages/core/src/svgs/fps.svg

<svg width="24" height="24" viewBox="0 0 24 24" fill="none" xmlns="http://www.w3.org/2000/svg">
<g clip-path="url(#clip0_31_10460)">
<path d="M0 0H24V24H0V0Z" fill="#F0F3FA"/>
<path d="M11.8715 9.43269C11.6915 9.37269 11.5329 9.26555 11.4086 9.11984C10.9715 8.60555 10.4529 7.98412 9.85291 7.25126C9.36005 6.64698 8.77291 6.04698 7.95005 6.00412C7.31071 5.96153 6.6791 6.16367 6.18329 6.56955C5.68748 6.97544 5.36458 7.55468 5.28005 8.18984C4.98005 10.007 4.68005 11.8241 4.39291 13.6413C4.33576 13.9484 4.29996 14.2592 4.28577 14.5713C4.28575 14.91 4.35288 15.2454 4.48328 15.558C4.61368 15.8706 4.80476 16.1543 5.04548 16.3926C5.28619 16.631 5.57176 16.8192 5.88568 16.9465C6.19959 17.0737 6.53562 17.1375 6.87434 17.1341C7.48976 17.1073 8.07538 16.8616 8.52563 16.4412C8.97589 16.0208 9.26117 15.4534 9.33005 14.8413H9.32148L9.31291 14.837C8.90921 14.8142 8.5251 14.6555 8.22303 14.3867C7.92097 14.1179 7.71873 13.7548 7.6492 13.3565C7.57967 12.9581 7.64693 12.548 7.84006 12.1928C8.03319 11.8375 8.34081 11.5581 8.71291 11.3998C9.5572 11.0398 10.4872 11.4341 10.8986 12.2655C11.026 12.589 11.0914 12.9336 11.0915 13.2813L11.1043 13.2898H12.7758C12.7929 13.2898 12.8015 13.2813 12.8101 13.2727C12.82 13.2639 12.8261 13.2516 12.8272 13.2384C12.8701 12.2655 13.5001 11.2841 14.4986 11.2541C14.8306 11.2521 15.1562 11.3455 15.4366 11.5233C15.717 11.7011 15.9404 11.9558 16.0801 12.257C16.5858 13.3713 15.9086 14.6827 14.7043 14.8155C14.6743 14.8155 14.6615 14.837 14.6615 14.867C14.8801 16.2941 16.0758 17.3184 17.5029 17.1255C17.8435 17.0766 18.1709 16.96 18.4658 16.7827C18.7606 16.6053 19.0171 16.3708 19.2199 16.0928C19.4228 15.8149 19.568 15.4992 19.647 15.1642C19.7261 14.8293 19.7373 14.482 19.6801 14.1427C19.4058 12.3855 19.0801 10.3755 18.7029 8.12126C18.5994 7.49176 18.2609 6.92496 17.7558 6.53522C17.2508 6.14548 16.6167 5.96181 15.9815 6.02126C15.1886 6.08555 14.5286 6.75841 14.0443 7.35412L13.6801 7.80412C13.3254 8.25459 12.9596 8.69615 12.5829 9.12841C12.3986 9.33412 12.1629 9.48841 11.8758 9.43698L11.8715 9.43269Z" fill="url(#paint0_linear_31_10460)"/>
<path d="M9.3428 14.0145C9.60274 14.0099 9.85037 13.9029 10.0318 13.7167C10.2132 13.5305 10.3137 13.2801 10.3114 13.0202C10.3137 12.7602 10.2132 12.5099 10.0318 12.3236C9.85037 12.1374 9.60274 12.0304 9.3428 12.0259C9.21392 12.0276 9.08662 12.0546 8.96819 12.1055C8.84976 12.1564 8.74251 12.2301 8.65257 12.3224C8.56263 12.4147 8.49175 12.5239 8.44399 12.6436C8.39624 12.7633 8.37253 12.8913 8.37423 13.0202C8.37253 13.1491 8.39624 13.277 8.44399 13.3967C8.49175 13.5165 8.56263 13.6256 8.65257 13.7179C8.74251 13.8103 8.84976 13.884 8.96819 13.9348C9.08662 13.9857 9.21392 14.0128 9.3428 14.0145Z" fill="url(#paint1_linear_31_10460)"/>
<path d="M15.5143 13.0159C15.5166 13.2758 15.4161 13.5262 15.2347 13.7124C15.0533 13.8986 14.8057 14.0057 14.5458 14.0102C14.2858 14.0057 14.0382 13.8986 13.8568 13.7124C13.6754 13.5262 13.5749 13.2758 13.5772 13.0159C13.576 12.7567 13.677 12.5074 13.8583 12.3221C14.0396 12.1368 14.2866 12.0304 14.5458 12.0259C14.8049 12.0304 15.0519 12.1368 15.2332 12.3221C15.4145 12.5074 15.5155 12.7567 15.5143 13.0159Z" fill="url(#paint2_linear_31_10460)"/>
</g>
<defs>
<linearGradient id="paint0_linear_31_10460" x1="4.8772" y1="11.1984" x2="19.3929" y2="11.2455" gradientUnits="userSpaceOnUse">
<stop stop-color="#AA32F2"/>
<stop offset="1" stop-color="#8760FB"/>
</linearGradient>
<linearGradient id="paint1_linear_31_10460" x1="4.87709" y1="11.1987" x2="19.3928" y2="11.2459" gradientUnits="userSpaceOnUse">
<stop stop-color="#AA32F2"/>
<stop offset="1" stop-color="#8760FB"/>
</linearGradient>
<linearGradient id="paint2_linear_31_10460" x1="4.87719" y1="11.1987" x2="19.3929" y2="11.2459" gradientUnits="userSpaceOnUse">
<stop stop-color="#AA32F2"/>
<stop offset="1" stop-color="#8760FB"/>
</linearGradient>
<clipPath id="clip0_31_10460">
<rect width="24" height="24" fill="white"/>
</clipPath>
</defs>
</svg>

<svg xmlns="http://www.w3.org/2000/svg" width="24" height="24" fill="none" viewBox="0 0 24 24"><g clip-path="url(#a)"><path fill="#F0F3FA" d="M0 0h24v24H0z"/><path fill="url(#b)" d="M11.872 9.433a1.04 1.04 0 0 1-.463-.313q-.656-.77-1.556-1.869c-.493-.604-1.08-1.204-1.903-1.247A2.524 2.524 0 0 0 5.28 8.19c-.3 1.817-.6 3.634-.887 5.451a7 7 0 0 0-.107.93 2.563 2.563 0 0 0 2.588 2.563 2.584 2.584 0 0 0 2.456-2.293h-.009l-.008-.004a1.791 1.791 0 0 1-.6-3.437c.844-.36 1.774.034 2.186.865.127.324.192.669.193 1.016l.012.009h1.672c.017 0 .026-.009.034-.017a.05.05 0 0 0 .017-.035c.043-.973.673-1.954 1.672-1.984a1.73 1.73 0 0 1 1.581 1.003c.506 1.114-.171 2.426-1.376 2.559-.03 0-.043.021-.043.051.22 1.427 1.415 2.451 2.842 2.258a2.58 2.58 0 0 0 2.177-2.982q-.411-2.638-.977-6.022a2.52 2.52 0 0 0-2.721-2.1c-.793.065-1.453.737-1.938 1.333l-.364.45q-.532.676-1.097 1.324c-.184.206-.42.36-.707.309z"/><path fill="url(#c)" d="M9.343 14.015a.986.986 0 0 0 .968-.995.986.986 0 0 0-.968-.994.98.98 0 0 0-.969.994.98.98 0 0 0 .969.995"/><path fill="url(#d)" d="M15.514 13.016a.986.986 0 0 1-.968.994.986.986 0 0 1-.969-.994.986.986 0 0 1 .969-.99.986.986 0 0 1 .968.99"/></g><defs><linearGradient id="b" x1="4.877" x2="19.393" y1="11.198" y2="11.245" gradientUnits="userSpaceOnUse"><stop stop-color="#AA32F2"/><stop offset="1" stop-color="#8760FB"/></linearGradient><linearGradient id="c" x1="4.877" x2="19.393" y1="11.199" y2="11.246" gradientUnits="userSpaceOnUse"><stop stop-color="#AA32F2"/><stop offset="1" stop-color="#8760FB"/></linearGradient><linearGradient id="d" x1="4.877" x2="19.393" y1="11.199" y2="11.246" gradientUnits="userSpaceOnUse"><stop stop-color="#AA32F2"/><stop offset="1" stop-color="#8760FB"/></linearGradient><clipPath id="a"><path fill="#fff" d="M0 0h24v24H0z"/></clipPath></defs></svg>
